dist/svgs/devui-icons/op/go-tree.svg

<?xml version="1.0" encoding="UTF-8"?>
<svg width="16px" height="16px" viewBox="0 0 16 16" version="1.1" xmlns="http://www.w3.org/2000/svg" xmlns:xlink="http://www.w3.org/1999/xlink">
    <title>操作/树</title>
    <desc>Created with Sketch.</desc>
    <g id="操作/树" stroke="none" stroke-width="1" fill="none" fill-rule="evenodd">
        <g id="树" fill="#293040">
            <path d="M7,7 L7,5 L9,5 L9,7 L12,7 C13.6568542,7 15,8.34314575 15,10 L15,11 L13,11 L13,10 C13,9.44771525 12.5522847,9 12,9 L9,9 L9,11 L7,11 L7,9 L4,9 C3.44771525,9 3,9.44771525 3,10 L3,11 L1,11 L1,10 C1,8.34314575 2.34314575,7 4,7 L7,7 Z M8,4 C6.8954305,4 6,3.1045695 6,2 C6,0.8954305 6.8954305,0 8,0 C9.1045695,0 10,0.8954305 10,2 C10,3.1045695 9.1045695,4 8,4 Z M2,16 C0.8954305,16 0,15.1045695 0,14 C0,12.8954305 0.8954305,12 2,12 C3.1045695,12 4,12.8954305 4,14 C4,15.1045695 3.1045695,16 2,16 Z M8,16 C6.8954305,16 6,15.1045695 6,14 C6,12.8954305 6.8954305,12 8,12 C9.1045695,12 10,12.8954305 10,14 C10,15.1045695 9.1045695,16 8,16 Z M14,16 C12.8954305,16 12,15.1045695 12,14 C12,12.8954305 12.8954305,12 14,12 C15.1045695,12 16,12.8954305 16,14 C16,15.1045695 15.1045695,16 14,16 Z" id="形状"></path>
        </g>
    </g>
</svg>

<svg xmlns="http://www.w3.org/2000/svg" viewBox="0 0 16 16"><path fill-rule="evenodd" d="M7 7V5h2v2h3a3 3 0 013 3v1h-2v-1a1 1 0 00-1-1H9v2H7V9H4a1 1 0 00-1 1v1H1v-1a3 3 0 013-3h3zm1-3a2 2 0 110-4 2 2 0 010 4zM2 16a2 2 0 110-4 2 2 0 010 4zm6 0a2 2 0 110-4 2 2 0 010 4zm6 0a2 2 0 110-4 2 2 0 010 4z"/></svg>
